src/icons/vk.svg

<svg width="29" height="23" viewBox="0 0 29 23" fill="none" xmlns="http://www.w3.org/2000/svg">
<g clip-path="url(#clip0_33652_7)">
<path d="M1.74097 5.43324C1.74097 4.57821 2.25607 4.11716 3.28628 4.0501L7.25612 4.07525C7.52255 4.07525 7.70017 4.20099 7.78898 4.45247C8.19751 5.70987 8.65489 6.79542 9.16111 7.70913C9.66733 8.62284 10.329 9.67486 11.146 10.8652C11.2171 11.0161 11.3325 11.0915 11.4924 11.0915C11.6167 11.0915 11.7144 11.0328 11.7855 10.9155L11.8654 10.6389L11.892 6.28827C11.892 5.98649 11.8166 5.78531 11.6656 5.68472C11.5146 5.58413 11.2348 5.50868 10.8263 5.45839C10.5066 5.40809 10.3467 5.22367 10.3467 4.90513C10.3467 4.83807 10.3556 4.78778 10.3734 4.75425C10.7464 3.6645 11.8121 3.11963 13.5706 3.11963L15.0626 3.09448C15.7376 3.09448 16.2971 3.25375 16.7411 3.57229C17.1852 3.89083 17.4072 4.39379 17.4072 5.08117V10.7897C17.5315 10.8736 17.647 10.9155 17.7536 10.9155C18.02 10.9155 18.2509 10.7646 18.4463 10.4628C20.4001 7.88097 21.457 6.15415 21.6168 5.28235C21.6168 5.26559 21.6346 5.22367 21.6701 5.15661C21.7944 4.90513 21.9987 4.68718 22.2829 4.50277C22.5671 4.31835 22.8158 4.19261 23.0289 4.12555C23.1 4.09202 23.1799 4.07525 23.2687 4.07525H27.3984L27.6648 4.1004C28.0201 4.1004 28.2954 4.25967 28.4908 4.57821C28.5618 4.6788 28.6107 4.78778 28.6373 4.90513C28.664 5.02249 28.6817 5.13985 28.6906 5.2572C28.6995 5.37456 28.7039 5.44162 28.7039 5.45839V5.63442C28.5796 6.3218 28.2643 7.05528 27.7581 7.83487C27.2519 8.61445 26.608 9.45691 25.8265 10.3622C25.0449 11.2676 24.5565 11.8627 24.3611 12.1477C24.2012 12.3489 24.1213 12.5333 24.1213 12.701C24.1213 12.8351 24.1923 12.986 24.3344 13.1537L28.2244 17.7809C28.4375 18.0491 28.5441 18.3425 28.5441 18.6611C28.5441 19.0467 28.3842 19.3652 28.0645 19.6167C27.7448 19.8682 27.3629 20.0107 26.9188 20.0442L26.4659 20.0693H22.4161C22.3984 20.0693 22.3628 20.0735 22.3096 20.0819C22.2563 20.0903 22.2207 20.0945 22.203 20.0945C21.8122 20.0945 21.4481 19.9352 21.1106 19.6167C20.9863 19.4826 20.1514 18.4934 18.6061 16.6492C18.5173 16.5319 18.393 16.4229 18.2331 16.3223C18.1621 16.5905 18.0688 16.9761 17.9534 17.4791C17.8379 17.9821 17.7536 18.3425 17.7003 18.5605L17.6203 18.988C17.4427 19.5748 17.0697 19.9268 16.5013 20.0442L16.1283 20.0693H13.5173C12.043 20.0693 10.5732 19.4323 9.10782 18.1581C7.64245 16.8839 6.3236 15.2367 5.1513 13.2165C3.979 11.1963 2.88663 8.84498 1.87418 6.16253C1.78537 5.94458 1.74097 5.70148 1.74097 5.43324ZM17.7536 11.9466C17.3806 11.9466 17.0431 11.8502 16.7411 11.6574C16.4392 11.4646 16.2882 11.2005 16.2882 10.8652V5.08117C16.2882 4.74586 16.1994 4.50696 16.0217 4.36445C15.8441 4.22195 15.5333 4.1507 15.0892 4.1507L13.5706 4.20099C12.8068 4.20099 12.2295 4.32673 11.8388 4.57821C12.6203 4.93028 13.0111 5.5003 13.0111 6.28827V10.7143C12.9755 11.1334 12.7979 11.4813 12.4782 11.7579C12.1585 12.0346 11.8032 12.1729 11.4125 12.1729C10.8796 12.1729 10.4711 11.9298 10.1869 11.4436C8.80143 9.46529 7.77122 7.58758 7.09626 5.81046L6.85647 5.15661L3.31292 5.13146C3.08201 5.13146 2.95323 5.14404 2.92659 5.16919C2.89995 5.19433 2.88663 5.26559 2.88663 5.38294C2.88663 5.53383 2.90439 5.6931 2.93991 5.86075L3.49942 7.26904C4.99144 10.9071 6.61224 13.774 8.36181 15.8696C10.1114 17.9653 11.8299 19.0131 13.5173 19.0131H16.1816C16.2882 19.0131 16.3681 18.9838 16.4214 18.9251C16.4747 18.8664 16.5191 18.7533 16.5546 18.5856L16.6079 18.3341L17.1141 16.1211C17.2562 15.8193 17.3806 15.6182 17.4871 15.5176C17.6825 15.3331 17.9134 15.2409 18.1798 15.2409C18.6061 15.2409 19.0413 15.484 19.4854 15.9702L21.75 18.6862C21.8921 18.9041 22.0431 19.0131 22.203 19.0131H26.5991C27.132 19.0131 27.3984 18.8874 27.3984 18.6359C27.3984 18.5521 27.3718 18.4683 27.3185 18.3844L23.4552 13.8326C23.1533 13.4806 23.0023 13.1034 23.0023 12.701C23.0023 12.2986 23.1444 11.913 23.4286 11.5442C23.6595 11.2089 24.108 10.6514 24.7741 9.87185C25.4401 9.09226 26.0218 8.36297 26.5192 7.68398C27.0165 7.00499 27.3451 6.38886 27.505 5.83561L27.5849 5.50868C27.5672 5.47515 27.5583 5.42067 27.5583 5.34522C27.5583 5.26978 27.5494 5.20691 27.5316 5.15661H23.3486C23.0822 5.2572 22.8691 5.40809 22.7092 5.60928L22.5493 6.08709C22.1053 7.24389 20.9419 9.02939 19.0591 11.4436C18.6861 11.7789 18.2509 11.9466 17.7536 11.9466Z" fill="#231F20"/>
</g>
<defs>
<clipPath id="clip0_33652_7">
<rect width="28" height="22" fill="white" transform="translate(0.740967 0.0944824)"/>
</clipPath>
</defs>
</svg>

<svg width="29" height="23" viewBox="0 0 29 23" fill="none" xmlns="http://www.w3.org/2000/svg"><g clip-path="url(#clip0_33652_7)"><path d="M1.74 5.43c0-.85.52-1.31 1.55-1.38l3.97.03c.26 0 .44.12.53.37.4 1.26.86 2.35 1.37 3.26.5.91 1.17 1.96 1.99 3.16.07.15.18.22.34.22.13 0 .22-.06.3-.17l.08-.28.02-4.35c0-.3-.07-.5-.22-.6a2.2 2.2 0 0 0-.84-.23c-.32-.05-.48-.24-.48-.55 0-.07 0-.12.02-.16.38-1.09 1.44-1.63 3.2-1.63l1.5-.03c.67 0 1.23.16 1.67.48.45.32.67.82.67 1.51v5.71c.12.08.24.13.34.13.27 0 .5-.16.7-.46 1.95-2.58 3-4.3 3.17-5.18a1.67 1.67 0 0 1 .67-.78c.28-.18.53-.3.74-.37a.56.56 0 0 1 .24-.05h4.13l.26.02c.36 0 .64.16.83.48.07.1.12.2.15.33a2.4 2.4 0 0 1 .06.55v.17a6.1 6.1 0 0 1-.94 2.2c-.5.78-1.15 1.63-1.93 2.53-.79.9-1.27 1.5-1.47 1.79-.16.2-.24.38-.24.55 0 .14.07.29.21.45l3.9 4.63c.2.27.31.56.31.88 0 .39-.16.7-.48.96-.32.25-.7.4-1.14.42l-.45.03h-4.05l-.11.01a.86.86 0 0 1-.1.01c-.4 0-.76-.15-1.1-.47l-2.5-2.97a1.39 1.39 0 0 0-.38-.33l-.28 1.16-.25 1.08-.08.43a1.4 1.4 0 0 1-1.12 1.05l-.37.03h-2.61c-1.48 0-2.95-.64-4.41-1.91a19.3 19.3 0 0 1-3.96-4.94 47.52 47.52 0 0 1-3.28-7.06 1.92 1.92 0 0 1-.13-.73Zm16.01 6.52c-.37 0-.7-.1-1-.3a.9.9 0 0 1-.46-.78V5.08c0-.33-.1-.57-.27-.72-.18-.14-.49-.2-.93-.2l-1.52.04c-.76 0-1.34.13-1.73.38.78.35 1.17.92 1.17 1.7v4.43a1.5 1.5 0 0 1-.53 1.05c-.32.27-.68.41-1.07.41-.53 0-.94-.24-1.22-.73a26.16 26.16 0 0 1-3.1-5.63l-.23-.65-3.55-.03c-.23 0-.36.01-.38.04-.03.02-.04.1-.04.21 0 .15.01.31.05.48l.56 1.4c1.5 3.65 3.11 6.51 4.86 8.61 1.75 2.1 3.47 3.14 5.16 3.14h2.66c.1 0 .19-.03.24-.08a.8.8 0 0 0 .13-.34l.06-.26.5-2.2c.15-.31.27-.51.38-.61.2-.19.42-.28.69-.28.43 0 .86.24 1.3.73l2.27 2.72c.14.21.3.32.45.32h4.4c.53 0 .8-.12.8-.37a.47.47 0 0 0-.08-.26l-3.86-4.55c-.3-.35-.46-.73-.46-1.13 0-.4.14-.79.43-1.16.23-.33.68-.89 1.34-1.67.67-.78 1.25-1.5 1.75-2.19.5-.68.83-1.3.98-1.84l.08-.33a.37.37 0 0 1-.02-.16.6.6 0 0 0-.03-.2h-4.18c-.27.1-.48.26-.64.46l-.16.48c-.44 1.15-1.6 2.94-3.5 5.35-.36.34-.8.5-1.3.5Z" fill="#231F20"/></g><defs><clipPath id="clip0_33652_7"><rect width="28" height="22" fill="white" transform="translate(.74 .1)"/></clipPath></defs></svg>
